images/cart-icon.svg

<svg width="31" height="22" viewBox="0 0 31 22" fill="none" xmlns="http://www.w3.org/2000/svg">
<g clip-path="url(#clip0_18302_640)">
<path d="M30.3 7.38892L26.8 7.58892L23.6 2.68892C23.5 2.48892 23.2 2.38892 23 2.38892C22.8 2.38892 22.5 2.48892 22.4 2.68892L19.2 7.58892H15.7C15.3 7.58892 15 7.88892 15 8.28892C15 8.38892 15 8.38892 15 8.48892L16.9 15.2889C17.1 15.9889 17.6 16.3889 18.3 16.3889H27.7C28.4 16.3889 28.9 15.9889 29.1 15.2889L31 8.38892C31 8.28892 31 8.28892 31 8.18892C31 7.78892 30.7 7.38892 30.3 7.38892ZM23 4.28892L25.2 7.48892H20.9L23 4.28892Z" fill="black"/>
</g>
<circle cx="10.5" cy="11.3889" r="10.5" fill="white"/>
<path d="M7.3996 15.8889C7.30627 15.8889 7.22693 15.8609 7.1616 15.8049C7.1056 15.7396 7.0776 15.6602 7.0776 15.5669V15.1189C7.0776 15.0349 7.10093 14.9416 7.1476 14.8389C7.19427 14.7362 7.2876 14.6242 7.4276 14.5029L10.3956 11.5349C10.8716 11.1336 11.2449 10.7929 11.5156 10.5129C11.7956 10.2236 11.9916 9.94825 12.1036 9.68692C12.2249 9.42558 12.2856 9.15492 12.2856 8.87492C12.2856 8.34292 12.1363 7.92292 11.8376 7.61492C11.5389 7.29758 11.0956 7.13892 10.5076 7.13892C10.1343 7.13892 9.81227 7.21825 9.5416 7.37692C9.27094 7.52625 9.05627 7.73625 8.8976 8.00692C8.74827 8.26825 8.65027 8.56692 8.6036 8.90292C8.58493 9.02425 8.5336 9.10825 8.4496 9.15492C8.37494 9.20158 8.30494 9.22492 8.2396 9.22492H7.5116C7.4276 9.22492 7.3576 9.20158 7.3016 9.15492C7.2456 9.09892 7.2176 9.03358 7.2176 8.95892C7.22693 8.60425 7.3016 8.24958 7.4416 7.89492C7.5816 7.53092 7.78693 7.20425 8.0576 6.91492C8.3376 6.62558 8.67827 6.39225 9.0796 6.21492C9.49027 6.02825 9.96627 5.93492 10.5076 5.93492C11.2449 5.93492 11.8469 6.07025 12.3136 6.34092C12.7896 6.60225 13.1396 6.95225 13.3636 7.39092C13.5876 7.82958 13.6996 8.31025 13.6996 8.83292C13.6996 9.24358 13.6296 9.62158 13.4896 9.96692C13.3496 10.3029 13.1443 10.6342 12.8736 10.9609C12.6123 11.2782 12.2856 11.6049 11.8936 11.9409L9.2056 14.6709H13.5736C13.6763 14.6709 13.7556 14.6989 13.8116 14.7549C13.8769 14.8109 13.9096 14.8902 13.9096 14.9929V15.5669C13.9096 15.6602 13.8769 15.7396 13.8116 15.8049C13.7556 15.8609 13.6763 15.8889 13.5736 15.8889H7.3996Z" fill="black"/>
<defs>
<clipPath id="clip0_18302_640">
<rect width="16" height="14" fill="white" transform="translate(15 2.38892)"/>
</clipPath>
</defs>
</svg>

<svg width="31" height="22" fill="none" xmlns="http://www.w3.org/2000/svg"><g clip-path="url(#a)"><path d="m30.3 7.39-3.5.2-3.2-4.9c-.1-.2-.4-.3-.6-.3-.2 0-.5.1-.6.3l-3.2 4.9h-3.5c-.4 0-.7.3-.7.7v.2l1.9 6.8c.2.7.7 1.1 1.4 1.1h9.4c.7 0 1.2-.4 1.4-1.1l1.9-6.9v-.2c0-.4-.3-.8-.7-.8ZM23 4.29l2.2 3.2h-4.3l2.1-3.2Z" fill="#000"/></g><circle cx="10.5" cy="11.39" r="10.5" fill="#fff"/><path d="M7.4 15.89a.35.35 0 0 1-.24-.09.35.35 0 0 1-.08-.23v-.45c0-.09.02-.18.07-.28.04-.1.14-.22.28-.34l2.97-2.97c.47-.4.84-.74 1.12-1.02.28-.29.47-.56.58-.82.12-.26.19-.54.19-.82 0-.53-.15-.95-.45-1.26-.3-.31-.74-.47-1.33-.47-.38 0-.7.08-.97.24-.27.15-.48.36-.64.63-.15.26-.25.56-.3.9-.02.11-.07.2-.15.24a.4.4 0 0 1-.21.07h-.73a.32.32 0 0 1-.2-.07.27.27 0 0 1-.1-.2 3.1 3.1 0 0 1 1.87-2.74c.41-.18.89-.28 1.43-.28.73 0 1.34.14 1.8.41.48.26.83.61 1.05 1.05a3.12 3.12 0 0 1 .13 2.58c-.14.33-.35.66-.62 1-.26.3-.58.63-.98.97l-2.68 2.73h4.36c.1 0 .19.03.24.08.07.06.1.14.1.24v.58c0 .09-.03.17-.1.23-.05.06-.13.09-.24.09H7.4Z" fill="#000"/><defs><clipPath id="a"><path fill="#fff" transform="translate(15 2.39)" d="M0 0h16v14H0z"/></clipPath></defs></svg>
